advanced/wallets/react-wallet-v2/public/wallet-connect-logo.svg

<svg fill="none" height="238" viewBox="0 0 388 238" width="388" xmlns="http://www.w3.org/2000/svg"><path d="m79.4993 46.539c63.2167-61.894 165.7097-61.894 228.9267 0l7.608 7.449c3.161 3.0947 3.161 8.1122 0 11.2069l-26.026 25.4817c-1.581 1.5473-4.143 1.5473-5.723 0l-10.47-10.2508c-44.101-43.1788-115.604-43.1788-159.705 0l-11.212 10.9777c-1.581 1.5474-4.1429 1.5474-5.7233 0l-26.0261-25.4816c-3.1608-3.0947-3.1608-8.1123 0-11.2069zm282.7507 52.6988 23.163 22.6792c3.161 3.094 3.161 8.112 0 11.206l-104.444 102.262c-3.161 3.095-8.286 3.095-11.447 0l-74.128-72.578c-.79-.774-2.072-.774-2.862 0l-74.127 72.578c-3.161 3.095-8.285 3.095-11.446 0l-104.44771-102.263c-3.160807-3.095-3.160807-8.112 0-11.207l23.16331-22.6785c3.1608-3.0947 8.2855-3.0947 11.4463 0l74.1291 72.5795c.791.773 2.072.773 2.862 0v-.001l74.126-72.5785c3.161-3.0948 8.285-3.0949 11.446-.0003v.0001l74.13 72.5787c.79.774 2.071.774 2.861 0l74.129-72.5772c3.16-3.0947 8.285-3.0947 11.446 0z" fill="#fff"/></svg>

<svg width="388" height="238" viewBox="0 0 388 238" fill="none" xmlns="http://www.w3.org/2000/svg">
<path d="M79.4993 46.539C142.716 -15.355 245.209 -15.355 308.426 46.539L316.034 53.988C319.195 57.0827 319.195 62.1002 316.034 65.1949L290.008 90.6766C288.427 92.2239 285.865 92.2239 284.285 90.6766L273.815 80.4258C229.714 37.247 158.211 37.247 114.11 80.4258L102.898 91.4035C101.317 92.9509 98.7551 92.9509 97.1747 91.4035L71.1486 65.9219C67.9878 62.8272 67.9878 57.8096 71.1486 54.715L79.4993 46.539ZM362.25 99.2378L385.413 121.917C388.574 125.011 388.574 130.029 385.413 133.123L280.969 235.385C277.808 238.48 272.683 238.48 269.522 235.385C269.522 235.385 269.522 235.385 269.522 235.385L195.394 162.807C194.604 162.033 193.322 162.033 192.532 162.807C192.532 162.807 192.532 162.807 192.532 162.807L118.405 235.385C115.244 238.48 110.12 238.48 106.959 235.385C106.959 235.385 106.959 235.385 106.959 235.385L2.51129 133.122C-0.649517 130.027 -0.649517 125.01 2.51129 121.915L25.6746 99.2365C28.8354 96.1418 33.9601 96.1418 37.1209 99.2365L111.25 171.816C112.041 172.589 113.322 172.589 114.112 171.816C114.112 171.816 114.112 171.815 114.112 171.815L188.238 99.2365C191.399 96.1417 196.523 96.1416 199.684 99.2362C199.684 99.2362 199.684 99.2363 199.684 99.2363L273.814 171.815C274.604 172.589 275.885 172.589 276.675 171.815L350.804 99.2378C353.964 96.1431 359.089 96.1431 362.25 99.2378Z" fill="white"/>
</svg>
